!! 00000] TT[WS
!!!OTL: Yidao wan
!!!ARE: Asia, China, Shanxi Shouyang
!! Ethnic Group: Han
!! WII, 114 (1)
!!!SCT: J0573
!!!YEM: Copyright 1995, estate of Helmut Schaffrath.
**kern
*ICvox
*Ivox
*M2/4
*k[f#c#g#]
*A:
{8a
16b
16b
8a
8b
=1
8cc#
16b
16b
4a
=2
8a
16cc#
16cc#
8b
8cc#
=3
8g#
8f#
4e}
=4
{8e
8c#
8e
8f#
=5
8a
8f#
4a
=6
8c#
8B
4c#}
=7
{8e
8a
8f#
8a
=8
8e
8B
8c#
8e
=9
8c#
8B
4A}
==
!!!AGN: Xiaodiao. Qingge, Sichun
!!!ONB: ESAC (Essen Associative Code) Database: CHINA
!!!AMT: simple duple
!!!AIN: vox
!!!EED: Helmut Schaffrath
!!!EEV: 1.0
*-
